offer/images/target1.svg

<svg height="56" viewBox="0 0 51 56" width="51" xmlns="http://www.w3.org/2000/svg"><g fill="none" fill-rule="evenodd"><path d="m25.5016991 10.2833821c.2731294 0 .5445596.007249.8147154.0196149 0-.0063961.0008496-.0127923.0008496-.0196149v-4.89223929c-.2705806-.00980753-.5424356-.01663014-.815565-.01663014s-.5445596.00682261-.815565.01663014v4.89223929c0 .0068226.0008496.0132188.0012743.0196149.2701559-.0123659.5411613-.0196149.8142907-.0196149z" fill="#db453a"/><path d="m40.0357476 55.6836013.9892973-.6583821c.8699361-.5790691 1.1073845-1.7559697.5305422-2.629264l-10.9583057-16.5896077-4.1385677 2.755056 10.9578808 16.5900341c.5768423.8728679 1.7496418 1.111233 2.6191531.5321637z" fill="#344a5d"/><path d="m6.40643318 55.6836013-.9888726-.6583821c-.86993603-.5790691-1.10738431-1.7559697-.53054202-2.629264l10.95788084-16.5896077 4.1389926 2.755056-10.95830565 16.5896077c-.57641755.8732943-1.74921713 1.1116594-2.61915317.5325901z" fill="#344a5d"/><path d="m46.3882346 27.9466984c0 12.8439936-10.3721182 23.2561525-23.1671442 23.2561525-12.7946012 0-23.1667194-10.4121589-23.1667194-23.2561525 0-12.8444202 10.3721182-23.25657898 23.1667194-23.25657898 12.795026 0 23.1671442 10.41215878 23.1671442 23.25657898z" fill="#fd715c"/><path d="m23.2210904 4.69011942c-.9842 0-1.9539578.06225628-2.9063.181652 11.4230077 1.43530707 20.2608443 11.21893278 20.2608443 23.07492698 0 11.8559941-8.8378366 21.6391935-20.2608443 23.0745004.9523422.1198221 1.9221.1816521 2.9063.1816521 12.795026 0 23.1671442-10.4121589 23.1671442-23.2561525 0-12.8444202-10.3721182-23.25657898-23.1671442-23.25657898z" fill="#ee5646"/><path d="m23.2210904 46.1460161c-9.9961936 0-18.12933098-8.1641082-18.12933098-18.1993177 0-10.0352096 8.13313738-18.19974426 18.12933098-18.19974426 9.9966185 0 18.1297558 8.16453466 18.1297558 18.19974426 0 10.0352095-8.1331373 18.1993177-18.1297558 18.1993177z" fill="#f2f2f2"/><path d="m23.2210904 9.74695414c-.9931203 0-1.9671258.08187134-2.917344.23708588 8.6139809 1.40503158 15.211562 8.92440298 15.211562 17.96265838 0 9.0378289-6.5975811 16.5572002-15.211562 17.9626583.9502182.1547881 1.9242237.2366594 2.917344.2366594 9.9966185 0 18.1297558-8.1641082 18.1297558-18.1993177 0-10.0352096-8.1331373-18.19974426-18.1297558-18.19974426z" fill="#dbd9d1"/><path d="m23.2210904 40.2879508c-6.7789595 0-12.2937933-5.5361234-12.2937933-12.3412524 0-6.8051292 5.5148338-12.3416789 12.2937933-12.3416789 6.7793844 0 12.294218 5.5365497 12.294218 12.3416789 0 6.805129-5.5148336 12.3412524-12.294218 12.3412524z" fill="#fed066"/><path d="m23.2210904 15.6050195c-1.005014 0-1.9819929.122807-2.917344.3522174 5.3750832 1.3180433 9.3764491 6.193226 9.3764491 11.9894615 0 5.7962353-4.0013659 10.6709917-9.3764491 11.9894614.9353511.2294103 1.9127549.351791 2.917344.351791 6.7793844 0 12.294218-5.5361234 12.294218-12.3412524 0-6.8051292-5.5148336-12.3416789-12.294218-12.3416789z" fill="#f5b556"/><path d="m23.2210904 34.9172759c-3.8289079 0-6.9437716-3.1268885-6.9437716-6.9705775 0-3.8441156 3.1148637-6.9710039 6.9437716-6.9710039 3.8293327 0 6.9441965 3.1268883 6.9441965 6.9710039 0 3.843689-3.1152886 6.9705775-6.9441965 6.9705775z" fill="#f2f2f2"/><path d="m23.2210904 20.9756945c-1.0372968 0-2.0214968.2311159-2.9063.6421783 2.3812801 1.1065424 4.0378965 3.5264377 4.0378965 6.3288256s-1.6566164 5.222283-4.0378965 6.3283991c.8848032.4110623 1.8690032.6421784 2.9063.6421784 3.8289079 0 6.9441965-3.1268885 6.9441965-6.9705775 0-3.8441156-3.1152886-6.9710039-6.9441965-6.9710039z" fill="#dbd9d1"/><path d="m23.2210904 30.0813231c-1.1723747 0-2.1264159-.9577241-2.1264159-2.1346247 0-1.1773271.9540412-2.1346248 2.1264159-2.1346248 1.1727995 0 2.1268406.9572977 2.1268406 2.1346248 0 1.1769006-.9540411 2.1346247-2.1268406 2.1346247z" fill="#ee5646"/><path d="m26.1002049 25.8994882c-.2149353 0-.4298708-.0822977-.5938333-.2468931-.3283499-.3291911-.3283499-.8634869 0-1.192678l17.1578741-17.22453698c.3283499-.32919104.8601663-.32919104 1.1885162 0 .327925.32961742.327925.86348681 0 1.19310434l-17.1582989 17.22411064c-.1639627.1645954-.3793227.2468931-.5942581.2468931z" fill="#3c5666"/><path d="m23.3859025 27.941155 8.2516491-2.4578461c.1677856-.0498903.1635378-.2895345-.005522-.3338815l-4.3598747-1.1427875c-.0603178-.0157773-.1074677-.0631092-.1231844-.1236599l-1.1409414-4.3805434c-.0441765-.1697125-.2828992-.1735502-.3325977-.0051169l-2.4483942 8.2839303c-.0293093.0976486.0615921.188901.1588653.159905z" fill="#54dac4"/><path d="m50.5883946 4.28161547-3.5171243-.27930071-.2786513-3.53112814c-.026336-.33388161-.4302956-.48355258-.6660448-.24646681l-4.6304555 4.64790449c-.0807069.08144485-.1223348.19401795-.1129897.30872319l.3308985 4.19675921-.0021238.00170565.0021238.0004265v.00170554l.0016991-.00170554 4.1810451.33217584c.1138394.00895476.2264043-.03240741.3071112-.11385226l4.6304554-4.64790459c.2357493-.23708566.0866539-.64260469-.2459437-.66904237z" fill="#fed066"/><path d="m50.5883946 4.28161547-3.5171243-.27930071-.2786513-3.53112814c-.026336-.33388161-.4302956-.48355258-.6660448-.24646681l-2.3621652 2.3708577.3453408 4.37713204-.0021238.00213204h.0021238v.00213204l.0021239-.00213204 4.3602994.34667395 2.3617405-2.3708577c.236174-.23708566.0870786-.64260469-.245519-.66904237z" fill="#f5b556"/><g fill="#eaa242"><path d="m49.1543594 6.63712229c-.1363523-.13602574-.3190049-.22599897-.5254449-.24262911l-3.6500782-.28996102-.2884212-3.66374269c-.0165661-.20851605-.1074677-.39272658-.24382-.52960531l-1.3749916 1.38029979.288846 3.66374269c.0004247.00554334.001699.01108669.0021238.01663014.0016991.01535077.0033982.03070175.0059468.04562614.0016992.01236606.003823.02430552.0063716.0362452.0025487.014498.0059469.02856961.0093451.04264122.0033982.01321884.0067963.02558491.0106193.03837725.0038229.01279234.0080707.02515841.0123184.03752437.0050973.01364522.0101945.02729044.0157166.04050928.0046725.01066031.009345.02174711.0140176.03240741.0067964.01407161.0135927.02771683.0208138.04136206.0055221.00938114.0106194.01918857.0161414.02856971.0080707.01364523.0165662.02686396.0250616.04008279.0059469.00895476.0118937.01790942.0178406.02643768.0093449.01279234.0191148.0251583.0288846.03709798.0067964.00852816.0135927.01748292.0208139.02558469.0097698.0110868.0199643.0217471.0301589.03240751.0084955.00852816.0165661.01705653.0250617.02558469.0101945.00938115.0203891.01790941.0310084.02686406.0097698.00852827.0191148.01705653.0293093.02515841.0101946.0076755.0208139.01492449.0310085.02217349.0110441.00810188.0220882.01620376.0339818.02345276.0106195.00682261.0216635.01279234.0327076.01918857.0114689.00682261.0233625.01407161.0356811.02046783.0140174.007249.0288844.01364523.0433268.02004145.0097698.00426408.01869.00895465.0284598.01279235.0250616.01023391.0505481.01876218.0764593.02643767.0025485.00085277.0046725.00127916.0072211.00170566.0237873.00682261.0484242.01279234.0734858.01748291.0055221.00085288.0114689.00127927.0169909.00255843.0216635.0034113.0429022.00639622.0649903.00852837.0016992 0 .0033982.00042639.0055221.00085277l3.6458306.28953463z"/><path d="m16.2773188 27.9466984c0-.2848441.0191147-.5649976.0522471-.840887-.0174158-.0012792-.0348315-.0025585-.0522471-.0025585h-5.3207124c-.0191148.2788743-.0293093.5598806-.0293093.8434455 0 .2835648.0101945.5645711.0293093.8434453h5.3207124c.0174156 0 .0348313-.0017056.0522471-.0025584-.0331324-.2758894-.0522471-.5564693-.0522471-.8408869z"/><path d="m23.2210904 20.9756945c.2837487 0 .5628248.0191885.8376533.0524487.0012742-.0174829.0025486-.0345394.0025486-.0524487v-5.3412525c-.2778018-.0187622-.5577275-.0294225-.8402019-.0294225s-.5624.0106603-.8402019.0294225v5.3412525c0 .0179093.0016991.0349658.0025487.0524487.2752532-.0332602.5543293-.0524487.8376532-.0524487z"/><path d="m35.4859991 27.1032529h-5.3207122c-.0178406 0-.0348315.0012793-.0522472.0025585.0331323.2758894.0522472.5560429.0522472.840887 0 .2844176-.0191149.5649975-.0522472.8404605.0174157.0012792.0344066.0029848.0522472.0029848h5.3207122c.01869-.2788742.0293093-.5598805.0293093-.8438718 0-.2831384-.0106193-.5641447-.0293093-.843019z"/><path d="m23.2210904 34.9172759c-.2833239 0-.5624-.0191887-.8372285-.0524489-.0012743.0174829-.0025487.0349659-.0025487.0524489v5.3412524c.2773772.0191885.5577277.0294225.8397772.0294225.2824744 0 .5624001-.010234.8406267-.0294225v-5.3412524c0-.017483-.0016992-.034966-.0029734-.0524489-.2748285.0332602-.5539046.0524489-.8376533.0524489z"/></g><path d="m5.09175942 27.9466984c0-.282712.00764587-.563292.02038913-.8425926-.00679638 0-.01359275-.0008529-.02038913-.0008529h-5.02082223c-.00976981.2801535-.01656619.5607335-.01656619.8434455 0 .2822855.00679638.5632919.01656619.8434453h5.02082223c.00679638 0 .01359275-.0008527.02038913-.0008527-.01274326-.2797271-.02038913-.5603071-.02038913-.8425926z" fill="#db453a"/><path d="m46.3716684 27.1032529h-5.0208222c-.0067964 0-.0135927.0008529-.0203891.0008529.0127431.2793006.0203891.5598806.0203891.8425926 0 .2822855-.007646.5628655-.0203891.8421661.0067964.0004265.0135927.0012792.0203891.0012792h5.0208222c.0097699-.2801534.0165662-.5611598.0165662-.8438718 0-.2822855-.0067963-.5628655-.0165662-.843019z" fill="#db453a"/><path d="m23.2210904 46.1460161c-.2812 0-.5607009-.0072491-.8389276-.0200414-.0004247.0068226-.0008496.0132188-.0008496.0200414v5.0402047c.2786514.0098075.5585772.0166301.8397772.0166301.2816248 0 .5615505-.0068226.8406267-.0166301v-5.0402047c0-.0068226-.0008496-.0136452-.0012743-.0204678-.2782266.0132187-.5577276.0204678-.8393524.0204678z" fill="#db453a"/></g></svg>

<?xml version="1.0" encoding="UTF-8"?>
<svg width="51px" height="56px" viewBox="0 0 51 56" version="1.1" xmlns="http://www.w3.org/2000/svg" xmlns:xlink="http://www.w3.org/1999/xlink">
    <!-- Generator: Sketch 52.2 (67145) - http://www.bohemiancoding.com/sketch -->
    <title>target (1)</title>
    <desc>Created with Sketch.</desc>
    <g id="Page-1" stroke="none" stroke-width="1" fill="none" fill-rule="evenodd">
        <g id="offer" transform="translate(-151.000000, -7928.000000)">
            <g id="target-(1)" transform="translate(151.000000, 7928.000000)">
                <path d="M25.5016991,10.2833821 C25.7748285,10.2833821 26.0462587,10.2906311 26.3164145,10.302997 C26.3164145,10.2966009 26.3172641,10.2902047 26.3172641,10.2833821 L26.3172641,5.39114281 C26.0466835,5.38133528 25.7748285,5.37451267 25.5016991,5.37451267 C25.2285697,5.37451267 24.9571395,5.38133528 24.6861341,5.39114281 L24.6861341,10.2833821 C24.6861341,10.2902047 24.6869837,10.2966009 24.6874084,10.302997 C24.9575643,10.2906311 25.2285697,10.2833821 25.5016991,10.2833821 Z" id="Path" fill="#DB453A"></path>
                <path d="M40.0357476,55.6836013 L41.0250449,55.0252192 C41.894981,54.4461501 42.1324294,53.2692495 41.5555871,52.3959552 L30.5972814,35.8063475 L26.4587137,38.5614035 L37.4165945,55.1514376 C37.9934368,56.0243055 39.1662363,56.2626706 40.0357476,55.6836013 Z" id="Path" fill="#344A5D"></path>
                <path d="M6.40643318,55.6836013 L5.41756058,55.0252192 C4.54762455,54.4461501 4.31017627,53.2692495 4.88701856,52.3959552 L15.8448994,35.8063475 L19.983892,38.5614035 L9.02558635,55.1510112 C8.4491688,56.0243055 7.27636922,56.2626706 6.40643318,55.6836013 Z" id="Path" fill="#344A5D"></path>
                <path d="M46.3882346,27.9466984 C46.3882346,40.790692 36.0161164,51.2028509 23.2210904,51.2028509 C10.4264892,51.2028509 0.0543710021,40.790692 0.0543710021,27.9466984 C0.0543710021,15.1022782 10.4264892,4.69011942 23.2210904,4.69011942 C36.0161164,4.69011942 46.3882346,15.1022782 46.3882346,27.9466984 Z" id="Path" fill="#FD715C"></path>
                <path d="M23.2210904,4.69011942 C22.2368904,4.69011942 21.2671326,4.7523757 20.3147904,4.87177142 C31.7377981,6.30707849 40.5756347,16.0907042 40.5756347,27.9466984 C40.5756347,39.8026925 31.7377981,49.5858919 20.3147904,51.0211988 C21.2671326,51.1410209 22.2368904,51.2028509 23.2210904,51.2028509 C36.0161164,51.2028509 46.3882346,40.790692 46.3882346,27.9466984 C46.3882346,15.1022782 36.0161164,4.69011942 23.2210904,4.69011942 Z" id="Path" fill="#EE5646"></path>
                <path d="M23.2210904,46.1460161 C13.2248968,46.1460161 5.09175942,37.9819079 5.09175942,27.9466984 C5.09175942,17.9114888 13.2248968,9.74695414 23.2210904,9.74695414 C33.2177089,9.74695414 41.3508462,17.9114888 41.3508462,27.9466984 C41.3508462,37.9819079 33.2177089,46.1460161 23.2210904,46.1460161 Z" id="Path" fill="#F2F2F2"></path>
                <path d="M23.2210904,9.74695414 C22.2279701,9.74695414 21.2539646,9.82882548 20.3037464,9.98404002 C28.9177273,11.3890716 35.5153084,18.908443 35.5153084,27.9466984 C35.5153084,36.9845273 28.9177273,44.5038986 20.3037464,45.9093567 C21.2539646,46.0641448 22.2279701,46.1460161 23.2210904,46.1460161 C33.2177089,46.1460161 41.3508462,37.9819079 41.3508462,27.9466984 C41.3508462,17.9114888 33.2177089,9.74695414 23.2210904,9.74695414 Z" id="Path" fill="#DBD9D1"></path>
                <path d="M23.2210904,40.2879508 C16.4421309,40.2879508 10.9272971,34.7518274 10.9272971,27.9466984 C10.9272971,21.1415692 16.4421309,15.6050195 23.2210904,15.6050195 C30.0004748,15.6050195 35.5153084,21.1415692 35.5153084,27.9466984 C35.5153084,34.7518274 30.0004748,40.2879508 23.2210904,40.2879508 Z" id="Path" fill="#FED066"></path>
                <path d="M23.2210904,15.6050195 C22.2160764,15.6050195 21.2390975,15.7278265 20.3037464,15.9572369 C25.6788296,17.2752802 29.6801955,22.1504629 29.6801955,27.9466984 C29.6801955,33.7429337 25.6788296,38.6176901 20.3037464,39.9361598 C21.2390975,40.1655701 22.2165013,40.2879508 23.2210904,40.2879508 C30.0004748,40.2879508 35.5153084,34.7518274 35.5153084,27.9466984 C35.5153084,21.1415692 30.0004748,15.6050195 23.2210904,15.6050195 Z" id="Path" fill="#F5B556"></path>
                <path d="M23.2210904,34.9172759 C19.3921825,34.9172759 16.2773188,31.7903874 16.2773188,27.9466984 C16.2773188,24.1025828 19.3921825,20.9756945 23.2210904,20.9756945 C27.0504231,20.9756945 30.1652869,24.1025828 30.1652869,27.9466984 C30.1652869,31.7903874 27.0499983,34.9172759 23.2210904,34.9172759 Z" id="Path" fill="#F2F2F2"></path>
                <path d="M23.2210904,20.9756945 C22.1837936,20.9756945 21.1995936,21.2068104 20.3147904,21.6178728 C22.6960705,22.7244152 24.3526869,25.1443105 24.3526869,27.9466984 C24.3526869,30.7490863 22.6960705,33.1689814 20.3147904,34.2750975 C21.1995936,34.6861598 22.1837936,34.9172759 23.2210904,34.9172759 C27.0499983,34.9172759 30.1652869,31.7903874 30.1652869,27.9466984 C30.1652869,24.1025828 27.0499983,20.9756945 23.2210904,20.9756945 Z" id="Path" fill="#DBD9D1"></path>
                <path d="M23.2210904,30.0813231 C22.0487157,30.0813231 21.0946745,29.123599 21.0946745,27.9466984 C21.0946745,26.7693713 22.0487157,25.8120736 23.2210904,25.8120736 C24.3938899,25.8120736 25.347931,26.7693713 25.347931,27.9466984 C25.347931,29.123599 24.3938899,30.0813231 23.2210904,30.0813231 Z" id="Path" fill="#EE5646"></path>
                <path d="M26.1002049,25.8994882 C25.8852696,25.8994882 25.6703341,25.8171905 25.5063716,25.6525951 C25.1780217,25.323404 25.1780217,24.7891082 25.5063716,24.4599171 L42.6642457,7.23538012 C42.9925956,6.90618908 43.524412,6.90618908 43.8527619,7.23538012 C44.1806869,7.56499754 44.1806869,8.09886693 43.8527619,8.42848446 L26.694463,25.6525951 C26.5305003,25.8171905 26.3151403,25.8994882 26.1002049,25.8994882 Z" id="Path" fill="#3C5666"></path>
                <path d="M23.3859025,27.941155 L31.6375516,25.4833089 C31.8053372,25.4334186 31.8010894,25.1937744 31.6320296,25.1494274 L27.2721549,24.0066399 C27.2118371,23.9908626 27.1646872,23.9435307 27.1489705,23.88298 L26.0080291,19.5024366 C25.9638526,19.3327241 25.7251299,19.3288864 25.6754314,19.4973197 L23.2270372,27.78125 C23.1977279,27.8788986 23.2886293,27.970151 23.3859025,27.941155 Z" id="Path" fill="#54DAC4"></path>
                <path d="M50.5883946,4.28161547 L47.0712703,4.00231476 L46.792619,0.47118662 C46.766283,0.137305014 46.3623234,-0.0123659571 46.1265742,0.224719813 L41.4961187,4.8726243 C41.4154118,4.95406915 41.3737839,5.06664225 41.383129,5.18134749 L41.7140275,9.3781067 L41.7119037,9.37981235 L41.7140275,9.38023885 L41.7140275,9.38194439 L41.7157266,9.38023885 L45.8967717,9.71241469 C46.0106111,9.72136945 46.123176,9.68000728 46.2038829,9.59856243 L50.8343383,4.95065784 C51.0700876,4.71357218 50.9209922,4.30805315 50.5883946,4.28161547 Z" id="Path" fill="#FED066"></path>
                <path d="M50.5883946,4.28161547 L47.0712703,4.00231476 L46.792619,0.47118662 C46.766283,0.137305014 46.3623234,-0.0123659571 46.1265742,0.224719813 L43.764409,2.59557751 L44.1097498,6.97270955 L44.107626,6.97484159 L44.1097498,6.97484159 L44.1097498,6.97697363 L44.1118737,6.97484159 L48.4721731,7.32151554 L50.8339136,4.95065784 C51.0700876,4.71357218 50.9209922,4.30805315 50.5883946,4.28161547 Z" id="Path" fill="#F5B556"></path>
                <path d="M49.1543594,6.63712229 C49.0180071,6.50109655 48.8353545,6.41112332 48.6289145,6.39449318 L44.9788363,6.10453216 L44.6904151,2.44078947 C44.673849,2.23227342 44.5829474,2.04806289 44.4465951,1.91118416 L43.0716035,3.29148395 L43.3604495,6.95522664 C43.3608742,6.96076998 43.3621485,6.96631333 43.3625733,6.97185678 C43.3642724,6.98720755 43.3659715,7.00255853 43.3685201,7.01748292 C43.3702193,7.02984898 43.3723431,7.04178844 43.3748917,7.05372812 C43.3774404,7.06822612 43.3808386,7.08229773 43.3842368,7.09636934 C43.387635,7.10958818 43.3910331,7.12195425 43.3948561,7.13474659 C43.398679,7.14753893 43.4029268,7.159905 43.4071745,7.17227096 C43.4122718,7.18591618 43.417369,7.1995614 43.4228911,7.21278024 C43.4275636,7.22344055 43.4322361,7.23452735 43.4369087,7.24518765 C43.4437051,7.25925926 43.4505014,7.27290448 43.4577225,7.28654971 C43.4632446,7.29593085 43.4683419,7.30573828 43.4738639,7.31511942 C43.4819346,7.32876465 43.4904301,7.34198338 43.4989255,7.35520221 C43.5048724,7.36415697 43.5108192,7.37311163 43.5167661,7.38163989 C43.526111,7.39443223 43.5358809,7.40679819 43.5456507,7.41873787 C43.5524471,7.42726603 43.5592434,7.43622079 43.5664646,7.44432256 C43.5762344,7.45540936 43.5864289,7.46606966 43.5966235,7.47673007 C43.605119,7.48525823 43.6131896,7.4937866 43.6216852,7.50231476 C43.6318797,7.51169591 43.6420743,7.52022417 43.6526936,7.52917882 C43.6624634,7.53770709 43.6718084,7.54623535 43.6820029,7.55433723 C43.6921975,7.56201273 43.7028168,7.56926172 43.7130114,7.57651072 C43.7240555,7.5846126 43.7350996,7.59271448 43.7469932,7.59996348 C43.7576127,7.60678609 43.7686567,7.61275582 43.7797008,7.61915205 C43.7911697,7.62597466 43.8030633,7.63322366 43.8153819,7.63961988 C43.8293993,7.64686888 43.8442663,7.65326511 43.8587087,7.65966133 C43.8684785,7.66392541 43.8773987,7.66861598 43.8871685,7.67245368 C43.9122301,7.68268759 43.9377166,7.69121586 43.9636278,7.69889135 C43.9661763,7.69974412 43.9683003,7.70017051 43.9708489,7.70059701 C43.9946362,7.70741962 44.0192731,7.71338935 44.0443347,7.71807992 C44.0498568,7.7189328 44.0558036,7.71935919 44.0613256,7.72063835 C44.0829891,7.72404965 44.1042278,7.72703457 44.1263159,7.72916672 C44.1280151,7.72916672 44.1297141,7.72959311 44.131838,7.73001949 L47.7776686,8.01955412 L49.1543594,6.63712229 Z" id="Path" fill="#EAA242"></path>
                <path d="M16.2773188,27.9466984 C16.2773188,27.6618543 16.2964335,27.3817008 16.3295659,27.1058114 C16.3121501,27.1045322 16.2947344,27.1032529 16.2773188,27.1032529 L10.9566064,27.1032529 C10.9374916,27.3821272 10.9272971,27.6631335 10.9272971,27.9466984 C10.9272971,28.2302632 10.9374916,28.5112695 10.9566064,28.7901437 L16.2773188,28.7901437 C16.2947344,28.7901437 16.3121501,28.7884381 16.3295659,28.7875853 C16.2964335,28.5116959 16.2773188,28.231116 16.2773188,27.9466984 Z" id="Path" fill="#EAA242"></path>
                <path d="M23.2210904,20.9756945 C23.5048391,20.9756945 23.7839152,20.994883 24.0587437,21.0281432 C24.0600179,21.0106603 24.0612923,20.9936038 24.0612923,20.9756945 L24.0612923,15.634442 C23.7834905,15.6156798 23.5035648,15.6050195 23.2210904,15.6050195 C22.938616,15.6050195 22.6586904,15.6156798 22.3808885,15.634442 L22.3808885,20.9756945 C22.3808885,20.9936038 22.3825876,21.0106603 22.3834372,21.0281432 C22.6586904,20.994883 22.9377665,20.9756945 23.2210904,20.9756945 Z" id="Path" fill="#EAA242"></path>
                <path d="M35.4859991,27.1032529 L30.1652869,27.1032529 C30.1474463,27.1032529 30.1304554,27.1045322 30.1130397,27.1058114 C30.146172,27.3817008 30.1652869,27.6618543 30.1652869,27.9466984 C30.1652869,28.231116 30.146172,28.5116959 30.1130397,28.7871589 C30.1304554,28.7884381 30.1474463,28.7901437 30.1652869,28.7901437 L35.4859991,28.7901437 C35.5046891,28.5112695 35.5153084,28.2302632 35.5153084,27.9462719 C35.5153084,27.6631335 35.5046891,27.3821272 35.4859991,27.1032529 Z" id="Path" fill="#EAA242"></path>
                <path d="M23.2210904,34.9172759 C22.9377665,34.9172759 22.6586904,34.8980872 22.3838619,34.864827 C22.3825876,34.8823099 22.3813132,34.8997929 22.3813132,34.9172759 L22.3813132,40.2585283 C22.6586904,40.2777168 22.9390409,40.2879508 23.2210904,40.2879508 C23.5035648,40.2879508 23.7834905,40.2777168 24.0617171,40.2585283 L24.0617171,34.9172759 C24.0617171,34.8997929 24.0600179,34.8823099 24.0587437,34.864827 C23.7839152,34.8980872 23.5048391,34.9172759 23.2210904,34.9172759 Z" id="Path" fill="#EAA242"></path>
                <path d="M5.09175942,27.9466984 C5.09175942,27.6639864 5.09940529,27.3834064 5.11214855,27.1041058 C5.10535217,27.1041058 5.0985558,27.1032529 5.09175942,27.1032529 L0.070937194,27.1032529 C0.0611673774,27.3834064 0.0543710021,27.6639864 0.0543710021,27.9466984 C0.0543710021,28.2289839 0.0611673774,28.5099903 0.070937194,28.7901437 L5.09175942,28.7901437 C5.0985558,28.7901437 5.10535217,28.789291 5.11214855,28.789291 C5.09940529,28.5095639 5.09175942,28.2289839 5.09175942,27.9466984 Z" id="Path" fill="#DB453A"></path>
                <path d="M46.3716684,27.1032529 L41.3508462,27.1032529 C41.3440498,27.1032529 41.3372535,27.1041058 41.3304571,27.1041058 C41.3432002,27.3834064 41.3508462,27.6639864 41.3508462,27.9466984 C41.3508462,28.2289839 41.3432002,28.5095639 41.3304571,28.7888645 C41.3372535,28.789291 41.3440498,28.7901437 41.3508462,28.7901437 L46.3716684,28.7901437 C46.3814383,28.5099903 46.3882346,28.2289839 46.3882346,27.9462719 C46.3882346,27.6639864 46.3814383,27.3834064 46.3716684,27.1032529 Z" id="Path" fill="#DB453A"></path>
                <path d="M23.2210904,46.1460161 C22.9398904,46.1460161 22.6603895,46.138767 22.3821628,46.1259747 C22.3817381,46.1327973 22.3813132,46.1391935 22.3813132,46.1460161 L22.3813132,51.1862208 C22.6599646,51.1960283 22.9398904,51.2028509 23.2210904,51.2028509 C23.5027152,51.2028509 23.7826409,51.1960283 24.0617171,51.1862208 L24.0617171,46.1460161 C24.0617171,46.1391935 24.0608675,46.1323709 24.0604428,46.1255483 C23.7822162,46.138767 23.5027152,46.1460161 23.2210904,46.1460161 Z" id="Path" fill="#DB453A"></path>
            </g>
        </g>
    </g>
</svg>
